X: 10
T: Madame Jobin, Reel du
R: Reel
M: 4/4
L: 1/8
K: G
N: Play AABB AABA
|:DG|"G"B2BB BAGE|DGBd BGBd|"D7"cAFA DFAc|"G"edBG D2GA|
B2BB BAGE|DGBd BGBd|"Am"edcB "D7"AFDF|"G"A2G2G2:|
|:FG|"D"Adde fdA2|fgafd2fa|"G"g2eg"D"f2df|"Em"g2ef|
"A7"edcB|"D"AFAd fdA2|fgafd2fa|"Em"gfed "A7"cdeg|"D"f2d2d2:|]

%%newpage
%%textfont * 14
%%begintext justify
%%32 Bar Reels
%%endtext
